X:158
T:The Gospel Shows The Father's Grace
%%stretchlast false
M:6/4
L:1/4
K:Eb clef=C1
"^I"[E,G,B,E]2 [E,B,EG]2 "^V¹"[D,B,FB] "^I"[E,B,EG]2 | "^V"[B,,B,DF] "^I"[E,B,EG] "^♭v°¹"[C,E,E=A] "^V"[B,,F,DB]2 | "^IV"[A,,A,Ec]2 "^I"[E,G,EB]2 [E,B,EG] "^V"[B,,B,DF]2 | "^I¹"[G,,E,B,E] "^IV"[A,,A,CE] "^V"[B,,F,B,D] "^I"[E,,G,B,E]2 | "^V"[B,,B,DF]2 "^I"[E,B,EG]2 [E,B,EG] "^V"[B,,B,DF]2 | [B,,F,DB] "^v"[F,CB] "^V/V"[F,,F,C=A] "^V"[B,,F,DB]2 | "^I"[E,B,G]2 "^IV"[A,,E,CA]2 "^I"[E,,B,EG] "^V"[B,,B,DF]2 | "^vi"[C,G,CE] "^IV"[A,,A,CE] "^V"[B,,F,B,D] "^I"[E,,G,B,E]2 |]
